Obsidian-SemiLight/actions/16s/run-build-clean.svg

<svg viewBox="0 0 16 16" xmlns="http://www.w3.org/2000/svg"><path d="m7 2v1.1015625c-.626.129-1.2209063.3774687-1.7539062.7304687l-.78125-.78125-1.4140626 1.4140626.78125.78125c-.3519999.5329999-.5985625 1.1279062-.7265624 1.7539062h-1.1054688v2h1.1015625c.129.626.3774687 1.220906.7304687 1.753906l-.78125.78125 1.4140626 1.414063.78125-.78125c.533.352 1.1279062.598562 1.7539062.726562v-1.027343c-.71-.182001-1.3571406-.556079-1.8691406-1.080079-.725-.747-1.1308594-1.7441559-1.1308594-2.7851559 0-1.081.4378906-2.1161406 1.2128906-2.8691406.747-.725 1.7461094-1.1308594 2.7871094-1.1308594 1.081 0 2.116141.4378906 2.869141 1.2128907.725.7469999 1.130859 1.7461093 1.130859 2.7871093-.002.338-.046812.674-.132812 1h2.132812v-2h-1.101562c-.129-.626-.377469-1.2228593-.730469-1.7558593l.78125-.7792969-1.414063-1.4140625-.78125.7792968c-.533-.352-1.127906-.5985624-1.753906-.7265624v-1.1035157zm0 4v4l3-2zm3 4-2 2 2 2h4v-4zm.599609 1h2.400391v2h-2.400391l-.9999996-1z" fill="#4d4d4d"/></svg>

<svg xmlns="http://www.w3.org/2000/svg" viewBox="0 0 16 16">
  <defs id="defs3051">
    <style type="text/css" id="current-color-scheme">
      .ColorScheme-Text {
        color:#4d4d4d;
      }
      </style>
  </defs>
 <path 
     style="fill:currentColor;fill-opacity:1;stroke:none" 
     d="M 7 2 L 7 3.1015625 C 6.374 3.2305625 5.7790937 3.4790312 5.2460938 3.8320312 L 4.4648438 3.0507812 L 3.0507812 4.4648438 L 3.8320312 5.2460938 C 3.4800313 5.7790937 3.2334687 6.374 3.1054688 7 L 2 7 L 2 9 L 3.1015625 9 C 3.2305625 9.626 3.4790312 10.220906 3.8320312 10.753906 L 3.0507812 11.535156 L 4.4648438 12.949219 L 5.2460938 12.167969 C 5.7790938 12.519969 6.374 12.766531 7 12.894531 L 7 11.867188 C 6.29 11.685187 5.6428594 11.311109 5.1308594 10.787109 C 4.4058594 10.040109 4 9.0429531 4 8.0019531 C 4 6.9209531 4.4378906 5.8858125 5.2128906 5.1328125 C 5.9598906 4.4078125 6.959 4.0019531 8 4.0019531 C 9.081 4.0019531 10.116141 4.4398437 10.869141 5.2148438 C 11.594141 5.9618437 12 6.9609531 12 8.0019531 C 11.998 8.3399531 11.953188 8.6759531 11.867188 9.0019531 L 14 9.0019531 L 14 7.0019531 L 12.898438 7.0019531 C 12.769438 6.3759531 12.520969 5.7790938 12.167969 5.2460938 L 12.949219 4.4667969 L 11.535156 3.0527344 L 10.753906 3.8320312 C 10.220906 3.4800312 9.626 3.2334688 9 3.1054688 L 9 2.0019531 L 7 2 z M 7 6 L 7 10 L 10 8 L 7 6 z M 10 10 L 8 12 L 10 14 L 14 14 L 14 10 L 10 10 z M 10.599609 11 L 13 11 L 13 13 L 10.599609 13 L 9.5996094 12 L 10.599609 11 z "
     class="ColorScheme-Text"/>
</svg>
